src/public/favicon.svg

<svg width="16" height="16" viewBox="0 0 16 16" fill="none" xmlns="http://www.w3.org/2000/svg">
<g id="photo-camera-interface-symbol-button_45010 1">
<g id="Group">
<path id="Vector" d="M10.5804 9.07966C10.5804 10.5026 9.4229 11.6601 8 11.6601C6.5771 11.6601 5.42003 10.5026 5.42003 9.07966C5.42003 7.65676 6.5771 6.49925 8 6.49925C9.4229 6.49925 10.5804 7.6572 10.5804 9.07966ZM16 5.4156V12.7446C16 13.7217 15.2078 14.5138 14.2308 14.5138H1.76923C0.792171 14.5138 0 13.7217 0 12.7446V5.4156C0 4.43854 0.792171 3.64637 1.76923 3.64637H3.94538V3.03422C3.94538 2.17924 4.63803 1.48615 5.49345 1.48615H10.5066C11.362 1.48615 12.0546 2.17924 12.0546 3.03422V3.64593H14.2308C15.2078 3.64637 16 4.43854 16 5.4156ZM11.9073 9.07966C11.9073 6.92519 10.1545 5.17233 8 5.17233C5.84597 5.17233 4.09311 6.92519 4.09311 9.07966C4.09311 11.2341 5.84597 12.987 8 12.987C10.1545 12.987 11.9073 11.2341 11.9073 9.07966Z" fill="#BEA69E"/>
</g>
</g>
</svg>

<svg xmlns="http://www.w3.org/2000/svg" width="16" height="16" fill="none">
  <path fill="#BEA69E" d="M10.58 9.08A2.583 2.583 0 0 1 8 11.66a2.583 2.583 0 0 1-2.58-2.58A2.583 2.583 0 0 1 8 6.5a2.584 2.584 0 0 1 2.58 2.58ZM16 5.416v7.329a1.77 1.77 0 0 1-1.77 1.769H1.77A1.77 1.77 0 0 1 0 12.744V5.417c0-.977.792-1.77 1.77-1.77h2.175v-.612c0-.855.693-1.548 1.548-1.548h5.014c.855 0 1.548.693 1.548 1.548v.612h2.176c.977 0 1.769.793 1.769 1.77ZM11.907 9.08A3.912 3.912 0 0 0 8 5.172 3.912 3.912 0 0 0 4.093 9.08 3.912 3.912 0 0 0 8 12.987a3.912 3.912 0 0 0 3.907-3.907Z"/>
</svg>
